X: 1
T: La Partida
R: waltz
M: 3/4
L: 1/8
K: Dmin
ABA^GA|:"Dm"f3AfA|f3AfA|"A"fg/f/e^de2|zGAG^FG|
"A"e3GeG|e3GeG|"Dm"ef/e/d^cd2|zABA^GA|
"Dm/F"d2^c(dd)=e|"D7/F#"d2c(BB)A|"Gm"AB/A/G^FG2|zBAGFE|
"Dm"D^CDEFG|"A"ABAGFE|"Dm"DE/D/^CDFA|1 dABA^GA:|2 dzA2A2||
|:"A"agAagA|agAagA|"Dm"gfAgfA|gfAgfA|
"A"feAfeA|feAfeA|"Dm"edAedA|edAedA|
"Dm/F"dcAdcA|"D7/F#"dcAdcA|"Gm"AB/A/G^FG2|zBAGFE|
"Dm"D^CDEFG|"A"ABAGFE|"Dm"DE/D/^CDFA|1 dzA2A2:|2 d||

